packages/foundations/assets/icons/functional/images/transportation/bus.svg

<svg xmlns="http://www.w3.org/2000/svg" width="32" height="32" fill="none"><path fill="#1A1C1F" fill-rule="evenodd" d="M8.533 2.064c-1.489.176-2.741 1.144-3.233 2.5-.295.812-.287.494-.286 10.47.001 10.06-.013 9.579.309 10.268.084.179.265.463.401.631l.249.305.001.841c.002 1.062.063 1.497.271 1.923.378.773 1.038 1.021 2.724 1.024 1.543.002 2.234-.211 2.65-.814.269-.391.342-.689.369-1.492l.024-.733h7.976l.024.76c.029.945.131 1.256.545 1.67.499.499 1.164.642 2.776.593 1.316-.039 1.715-.163 2.179-.679.39-.434.469-.754.502-2.047l.027-1.063.242-.297a3.16 3.16 0 0 0 .624-1.315c.118-.56.119-18.559 0-19.239-.245-1.402-1.01-2.416-2.247-2.977-.789-.358-.227-.335-8.473-.343-4.107-.004-7.551.002-7.654.014m14.661 1.99c.887.116 1.48.605 1.688 1.393.058.221.08 1.506.11 6.454.024 3.835.019 6.179-.012 6.179-.027 0-.385.047-.795.104-2.772.387-5.227.552-8.185.551-2.991 0-5.706-.182-8.205-.55a23 23 0 0 0-.76-.105c-.065 0-.06-11.382.005-12.098.057-.631.192-.986.506-1.335.257-.284.764-.532 1.203-.589.491-.063 13.958-.067 14.445-.004M10.587 6.089c-.151.083-.399.319-.467.443-.261.482-.039 1.139.46 1.366.21.095.455.1 5.42.1s5.21-.005 5.42-.1a1.1 1.1 0 0 0 .355-.279c.142-.188.269-.57.23-.693a3 3 0 0 1-.055-.218c-.039-.178-.313-.499-.515-.604-.128-.066-.923-.077-5.446-.076-3.758.001-5.327.019-5.402.061M2.613 7.1c-.172.068-.412.297-.524.5-.078.14-.091.423-.107 2.24-.012 1.441.002 2.167.045 2.362a.997.997 0 0 0 1.147.787c.313-.047.691-.37.772-.662.032-.115.054-1.06.054-2.342 0-2.27-.01-2.37-.255-2.642-.239-.264-.785-.381-1.132-.243m25.947.029c-.247.13-.353.239-.46.471-.09.196-.098.393-.099 2.41-.001 1.422.019 2.249.056 2.347.076.203.359.493.568.583.38.163.898.023 1.153-.31.234-.307.256-.563.238-2.796-.014-1.813-.027-2.094-.105-2.234-.117-.211-.355-.433-.541-.503-.217-.082-.625-.066-.81.032M7.897 20.212c2.923.392 4.746.504 8.236.506 3.506.002 5.257-.104 7.849-.479.504-.073.944-.132.978-.132.046 0 .058.524.044 2.066l-.017 2.067-.134.239a1 1 0 0 1-.374.374l-.239.134H7.813l-.265-.134a.74.74 0 0 1-.4-.398l-.135-.265-.016-2.042c-.013-1.651-.003-2.041.053-2.041.039 0 .42.047.847.105m1.95 1.356c-1.05.391-1.123 1.837-.117 2.305 1.227.571 2.346-.977 1.424-1.971-.313-.337-.896-.486-1.307-.334m11.593-.028c-.587.192-.925.634-.925 1.207a1.23 1.23 0 0 0 1.755 1.126c.911-.424.97-1.688.104-2.195-.252-.148-.701-.214-.934-.138M9.973 27.493V28H8v-1.013h1.973zm14.027 0V28h-1.973v-1.013H24z"/></svg>

<svg width="32" height="32" viewBox="0 0 32 32" fill="none" xmlns="http://www.w3.org/2000/svg"><path d="M8.533 2.064 C 7.044 2.240,5.792 3.208,5.300 4.564 C 5.005 5.376,5.013 5.058,5.014 15.034 C 5.015 25.094,5.001 24.613,5.323 25.302 C 5.407 25.481,5.588 25.765,5.724 25.933 L 5.973 26.238 5.974 27.079 C 5.976 28.141,6.037 28.576,6.245 29.002 C 6.623 29.775,7.283 30.023,8.969 30.026 C 10.512 30.028,11.203 29.815,11.619 29.212 C 11.888 28.821,11.961 28.523,11.988 27.720 L 12.012 26.987 16.000 26.987 L 19.988 26.987 20.012 27.747 C 20.041 28.692,20.143 29.003,20.557 29.417 C 21.056 29.916,21.721 30.059,23.333 30.010 C 24.649 29.971,25.048 29.847,25.512 29.331 C 25.902 28.897,25.981 28.577,26.014 27.284 L 26.041 26.221 26.283 25.924 C 26.584 25.554,26.805 25.088,26.907 24.609 C 27.025 24.049,27.026 6.050,26.907 5.370 C 26.662 3.968,25.897 2.954,24.660 2.393 C 23.871 2.035,24.433 2.058,16.187 2.050 C 12.080 2.046,8.636 2.052,8.533 2.064 M23.194 4.054 C 24.081 4.170,24.674 4.659,24.882 5.447 C 24.940 5.668,24.962 6.953,24.992 11.901 C 25.016 15.736,25.011 18.080,24.980 18.080 C 24.953 18.080,24.595 18.127,24.185 18.184 C 21.413 18.571,18.958 18.736,16.000 18.735 C 13.009 18.735,10.294 18.553,7.795 18.185 C 7.403 18.127,7.061 18.080,7.035 18.080 C 6.970 18.080,6.975 6.698,7.040 5.982 C 7.097 5.351,7.232 4.996,7.546 4.647 C 7.803 4.363,8.310 4.115,8.749 4.058 C 9.240 3.995,22.707 3.991,23.194 4.054 M10.587 6.089 C 10.436 6.172,10.188 6.408,10.120 6.532 C 9.859 7.014,10.081 7.671,10.580 7.898 C 10.790 7.993,11.035 7.998,16.000 7.998 C 20.965 7.998,21.210 7.993,21.420 7.898 C 21.540 7.843,21.700 7.718,21.775 7.619 C 21.917 7.431,22.044 7.049,22.005 6.926 C 21.992 6.886,21.968 6.788,21.950 6.708 C 21.911 6.530,21.637 6.209,21.435 6.104 C 21.307 6.038,20.512 6.027,15.989 6.028 C 12.231 6.029,10.662 6.047,10.587 6.089 M2.613 7.100 C 2.441 7.168,2.201 7.397,2.089 7.600 C 2.011 7.740,1.998 8.023,1.982 9.840 C 1.970 11.281,1.984 12.007,2.027 12.202 C 2.145 12.740,2.628 13.071,3.174 12.989 C 3.487 12.942,3.865 12.619,3.946 12.327 C 3.978 12.212,4.000 11.267,4.000 9.985 C 4.000 7.715,3.990 7.615,3.745 7.343 C 3.506 7.079,2.960 6.962,2.613 7.100 M28.560 7.129 C 28.313 7.259,28.207 7.368,28.100 7.600 C 28.010 7.796,28.002 7.993,28.001 10.010 C 28.000 11.432,28.020 12.259,28.057 12.357 C 28.133 12.560,28.416 12.850,28.625 12.940 C 29.005 13.103,29.523 12.963,29.778 12.630 C 30.012 12.323,30.034 12.067,30.016 9.834 C 30.002 8.021,29.989 7.740,29.911 7.600 C 29.794 7.389,29.556 7.167,29.370 7.097 C 29.153 7.015,28.745 7.031,28.560 7.129 M7.897 20.212 C 10.820 20.604,12.643 20.716,16.133 20.718 C 19.639 20.720,21.390 20.614,23.982 20.239 C 24.486 20.166,24.926 20.107,24.960 20.107 C 25.006 20.107,25.018 20.631,25.004 22.173 L 24.987 24.240 24.853 24.479 C 24.764 24.637,24.637 24.764,24.479 24.853 L 24.240 24.987 16.027 24.987 L 7.813 24.987 7.548 24.853 C 7.337 24.748,7.254 24.665,7.148 24.455 L 7.013 24.190 6.997 22.148 C 6.984 20.497,6.994 20.107,7.050 20.107 C 7.089 20.107,7.470 20.154,7.897 20.212 M9.847 21.568 C 8.797 21.959,8.724 23.405,9.730 23.873 C 10.957 24.444,12.076 22.896,11.154 21.902 C 10.841 21.565,10.258 21.416,9.847 21.568 M21.440 21.540 C 20.853 21.732,20.515 22.174,20.515 22.747 C 20.516 23.663,21.443 24.258,22.270 23.873 C 23.181 23.449,23.240 22.185,22.374 21.678 C 22.122 21.530,21.673 21.464,21.440 21.540 M9.973 27.493 L 9.973 28.000 8.987 28.000 L 8.000 28.000 8.000 27.493 L 8.000 26.987 8.987 26.987 L 9.973 26.987 9.973 27.493 M24.000 27.493 L 24.000 28.000 23.013 28.000 L 22.027 28.000 22.027 27.493 L 22.027 26.987 23.013 26.987 L 24.000 26.987 24.000 27.493 " fill="#1A1C1F" stroke="none" fill-rule="evenodd"></path></svg>
